remix/System/forbid-2-line.svg

<svg viewBox="0 0 24 24" fill="currentColor" xmlns="http://www.w3.org/2000/svg"><path d="M12 22C6.47715 22 2 17.5228 2 12C2 6.47715 6.47715 2 12 2C17.5228 2 22 6.47715 22 12C22 17.5228 17.5228 22 12 22ZM12 20C16.4183 20 20 16.4183 20 12C20 7.58172 16.4183 4 12 4C7.58172 4 4 7.58172 4 12C4 16.4183 7.58172 20 12 20ZM16.8911 8.52313L8.52313 16.8911C8.25459 16.6997 7.99828 16.4836 7.75736 16.2426C7.51644 16.0017 7.30029 15.7454 7.10891 15.4769L15.4769 7.10891C15.7454 7.30029 16.0017 7.51644 16.2426 7.75736C16.4836 7.99828 16.6997 8.25459 16.8911 8.52313Z"/></svg>

<svg viewBox="0 0 24 24" xmlns="http://www.w3.org/2000/svg"><path fill="none" d="M0 0h24v24H0Z"/><path d="M12 22C6.477 22 2 17.523 2 12 2 6.477 6.477 2 12 2c5.523 0 10 4.477 10 10s-4.477 10-10 10Zm0-2v0c4.41 0 8-3.59 8-8 0-4.42-3.59-8-8-8v0c-4.42 0-8 3.58-8 8 0 4.41 3.58 8 8 8Zm4.89-11.477l-8.368 8.36v0c-.55-.39-1.03-.87-1.42-1.42L15.47 7.09V7.09c.54.38 1.02.86 1.41 1.41Z"/></svg>
